X: 1
T: Malltraeth
M: 3/4
L: 1/8
R: waltz
K: Gmaj
|: dc | B2 GB AG | F2 DE DC | B,2 D2 GF | G4 d>c |
B2 g2 (3fgf | e2 A3 d | ^c3 d ec |1 d2 de :|2 d4 ||
|: d2 | ed ef g/f/e | d2 B2 cd | e2 EF GA | G2 FE DC |
B,2 D2 G>F | EG c2 B2 | A>B D2 GF | G4 :|
